X:1
T:James Gibb editions
T:Psalm 84 (Becker) - Schütz
%%score [ ( 1 2 ) ( 3 4 ) ]
L:1/8
Q:1/4=100
M:3/4
K:Bb
V:1 treble nm="Soprano Alto"
V:2 treble 
V:3 bass nm="Tenor Bass"
V:4 bass 
V:1
"^Cornelius Becker\n(1561-1604)""^Psalm 84, SWV 181""^Heinrich Schütz\n(1585-1672)" z4 B2 | B4 B2 | %2
w: ~Wie|sehr lieb-|
w: Herr|Ze- ba-|
 =B4 B2 | c2 c2 z2 | z4 c2 | c4 c2 | ^c2 d2 !courtesy!^c2 | d6 :| z4 B2 | B4 B2 | e4 d2 | %11
w: lich und|schö- ne|sind|doch die|Woh\- * nung|dein!|den|Got- tes-|dienst zu|
w: oth, mit|Seh- nen|ver-|langt die|See\- * le|mein,||||
 c2 c2 z2 | c2 c2 c2 | f4 e2 | d2 d2 z2 | d2 d2 g2 | (e3 d c2 | B2 c2) A2 | G12 |] %19
w: bau- en,|des Le- bens|Gott zu|schau- en,|mein Leib und|Seel * *|* * sich|freun.|
w: ||||||||
V:2
 z4 F2 | G4 G2 | G4 G2 | G2 G2 z2 | z4 E2 | A4 A2 | A4 A2 | A6 :| z4 G2 | G4 G2 | c4 B2 | %11
 A2 A2 z2 | A2 A2 A2 | d4 c2 | =B2 B2 z2 | =B2 B2 B2 | (c2 CDEF | G4) ^F2 | G12 |] %19
V:3
 z4 D2 | E4 E2 | D4 D2 | C2 C2 z2 | z4 G2 | F4 F2 | (=E2 D2) !courtesy!=E2 | ^F6 :| z4 G2 | E4 E2 | %10
 G4 F2 | F2 F2 z2 | F2 F2 F2 | %13
 A4"^2. Ein Stätte hat gefunden \ndas klein Waldvögelein, \ndie Schwalb ihr Nest erkundet, \nlegt ihre Jungen drein, \nder Gottesdienst so schone \nist meines Herzens Wonne, \no Gott und König mein.\n\n3. Wohl denen, die da bleiben, \nHerr Gott, im Hause dein,\nohn Unterlaß sie treiben \ndein Lob in heilger G'mein, \nwohl den'n, die dich lan walten \nund dich für ihr Kraft halten,\nfolg'n dir von Herzen rein." G2 | %14
 G2 G2 z2 | G2 G2 D2 | %16
"^5. Gott Zebaoth, mein Herre, \nerhöre mein Gebet,\nvernimms, Gott Vater, gerne, \ndenn mirs von Herzen geht,\nGott, mein Schild, dem ich traue, \nin Gnad das Reich anschaue, \ndas dein'm G'salbten zusteht.\n\n7. Der Herr ist Sonn und Schilde, \ngibt Gnad, Ehr mildiglich \naus seinem Herzen milde, \ndem Frommen mangelt nicht. \nHerr Zebaoth er heißet, \nselig ist der gepreiset, \nder sich verläßt auf dich." (G6 | %17
 D2 E2) D2 | D12 |] %19
V:4
 z4 B,2 | E,4 E,2 | G,4 G,2 | C,2 C,2 z2 | z4 C2 | F,4 F,2 | (A,2 D,2) A,2 | D,6 :| z4 E,2 | %9
 E,4 E,2 | C,4 D,2 | F,2 F,2 z2 | F,2 F,2 F,2 | D,4 E,2 | G,2 G,2 z2 | G,2 G,2 G,2 | %16
 (C,3 =B,, C,2 | G,2 C,2) D,2 | G,12 |] %19

